X: 547
T: Gu changgong
%%abc-version 2.0
%%abcx-abcm2ps-target-version 5.9.1 (29 Sep 2008)
%%abc-creator hum2abc beta
%%abcx-conversion-date 2013/10/02 07:52:30
%%abc-edited-by Helmut Schaffrath
%%humdrum-veritas 1683140905
%%humdrum-veritas-data 43805167
%%continueall 1
%%barnumbers 0
L: 1/16
M: 2/4
K: A
c e2 cB4 [I:setbarnb 1]| 
c e c BA4 | 
A B c2 e c B A | 
B2 F EC4 | 
E2 E F A c B A | 
B B A E F2 F2 | 
B B2 c B c B A | 
F A E F A2 G F | 
C F E CB,4 |]  



